img/svg/quotes-icon.svg

<svg width="44" height="44" fill="none" xmlns="http://www.w3.org/2000/svg"><rect width="44" height="44" rx="12" fill="#DCF2ED"/><path d="M19.4 26.6 14.8 22l4.6-4.6L18 16l-6 6 6 6 1.4-1.4Zm5.2 0 4.6-4.6-4.6-4.6L26 16l6 6-6 6-1.4-1.4Z" fill="#20484F"/></svg>

<svg width="44" height="44" viewBox="0 0 44 44" fill="none" xmlns="http://www.w3.org/2000/svg">
<rect width="44" height="44" rx="12" fill="#DCF2ED"/>
<path d="M19.4 26.6L14.8 22L19.4 17.4L18 16L12 22L18 28L19.4 26.6ZM24.6 26.6L29.2 22L24.6 17.4L26 16L32 22L26 28L24.6 26.6V26.6Z" fill="#20484F"/>
</svg>
